X: 1
T: the Sweet Forget-me-not
R: waltz
O: 1890's pop song.
B:
D:
Z: 1998 by John Chambers <jc:trillian.mit.edu>
N:
M: 3/4
L: 1/4
K: D
|: A \
| "D"A2F | A2d | f2f | f2d  |  "G"ed2 | Bd2 | "D"A3- | A3 | "G"B2A | Bd2 | "D"A2F | A2d | "E7"e2e | ef2 | "A7"e3- | e2 ||
| "D"A2F | A2d | f2f | f2d  |  "G"ed2 | Bd2 | "D"A3- | A3 | "G"B2A | Bd2 | "D"A2F | Ade | f2g | "A7"f2e | "D"d3- | d2 |]
